assets/img/icon-lock.svg

<svg width="16" height="21" viewBox="0 0 16 21" xmlns="http://www.w3.org/2000/svg"><title>Lock</title><g fill="none" fill-rule="evenodd"><path d="M4.3 12.9h6.9V6c0-1.9-1.6-3.5-3.5-3.5S4.2 4.1 4.2 6v6.9h.1zm9 2.1h-11V6C2.3 2.9 4.8.5 7.8.5 10.9.5 13.3 3 13.3 6v9z" fill="#404040"/><path d="M13.9 21H1.7C.8 21 0 20.2 0 19.3v-8.2c0-.9.8-1.7 1.7-1.7h12.2c.9 0 1.7.8 1.7 1.7v8.2c0 1-.8 1.7-1.7 1.7" fill="#DEA933"/></g></svg>

<?xml version="1.0" encoding="UTF-8" standalone="no"?>
<svg width="16px" height="21px" viewBox="0 0 16 21" version="1.1" xmlns="http://www.w3.org/2000/svg" xmlns:xlink="http://www.w3.org/1999/xlink" xmlns:sketch="http://www.bohemiancoding.com/sketch/ns">
    <!-- Generator: Sketch 3.4.4 (17249) - http://www.bohemiancoding.com/sketch -->
    <title>Lock</title>
    <desc>Created with Sketch.</desc>
    <defs></defs>
    <g id="Page-1" stroke="none" stroke-width="1" fill="none" fill-rule="evenodd" sketch:type="MSPage">
        <g id="Extra-Small-Devices-(-&lt;-768px-)---2col" sketch:type="MSArtboardGroup" transform="translate(-16.000000, -155.000000)">
            <g id="Cards" sketch:type="MSLayerGroup" transform="translate(15.000000, 155.000000)">
                <g id="Lock" transform="translate(1.000000, 0.000000)" sketch:type="MSShapeGroup">
                    <path d="M4.3,12.9 L11.2,12.9 L11.2,6 C11.2,4.1 9.6,2.5 7.7,2.5 C5.8,2.5 4.2,4.1 4.2,6 L4.2,12.9 L4.3,12.9 Z M13.3,15 L2.3,15 L2.3,6 C2.3,2.9 4.8,0.5 7.8,0.5 C10.9,0.5 13.3,3 13.3,6 L13.3,15 Z" id="Fill-1" fill="#404040"></path>
                    <path d="M13.9,21 L1.7,21 C0.8,21 0,20.2 0,19.3 L0,11.1 C0,10.2 0.8,9.4 1.7,9.4 L13.9,9.4 C14.8,9.4 15.6,10.2 15.6,11.1 L15.6,19.3 C15.6,20.3 14.8,21 13.9,21" id="Fill-3" fill="#DEA933"></path>
                </g>
            </g>
        </g>
    </g>
</svg>
